src/assets/svg/ic_grab.svg

<svg xmlns="http://www.w3.org/2000/svg" width="16" height="16">
    <path d="M11 7h2V5h-2v2zM7 7h2V5H7v2zM3 7h2V5H3v2zm8 4h2V9h-2v2zm-4 0h2V9H7v2zm-4 0h2V9H3v2z" fill-rule="evenodd" clip-rule="evenodd" fill="#3d464d"/>
</svg>

<?xml version="1.0" encoding="iso-8859-1"?>
<!-- Generator: Adobe Illustrator 16.0.4, SVG Export Plug-In . SVG Version: 6.00 Build 0)  -->
<!DOCTYPE svg PUBLIC "-//W3C//DTD SVG 1.1//EN" "http://www.w3.org/Graphics/SVG/1.1/DTD/svg11.dtd">
<svg version="1.1" id="artwork" xmlns="http://www.w3.org/2000/svg" xmlns:xlink="http://www.w3.org/1999/xlink" x="0px" y="0px"
	 width="16px" height="16px" viewBox="0 0 16 16" style="enable-background:new 0 0 16 16;" xml:space="preserve">
<path style="fill-rule:evenodd;clip-rule:evenodd;fill:#3D464D;" d="M11,7h2V5h-2V7z M7,7h2V5H7V7z M3,7h2V5H3V7z M11,11h2V9h-2V11z
	 M7,11h2V9H7V11z M3,11h2V9H3V11z"/>
</svg>
